X:285
T:Lanigan's Ball
R:Jig
S:Seamus Quinn, Fermanagh (fiddle)
D:Tape of recital, Irvingstown, Fermanagh 1993
N:As played
Z:Bernie Stocks
M:6/8
K:G
B || {d}BAB G2B | dBG A3D3 | {d}BAB GzB | {d}AFD AFD |{d}BAB G2B |
dBG A3D3 | B2D2d B-cA |1 BGE {G}FED :|2 BGE E2B || e2f {a}gfe |
(3abag {a}fed | e2f gfe | fdB {d}Bcd | e2f {a}gfe |
(3abag fed | edB cBA |1 BGE EDE :|2 BGE B3E3 ||
